src/assets/images/common/about-us.svg

<?xml version="1.0" encoding="UTF-8"?>
<!DOCTYPE svg  PUBLIC '-//W3C//DTD SVG 1.1//EN'  'http://www.w3.org/Graphics/SVG/1.1/DTD/svg11.dtd'>
<svg enable-background="new 0 0 80.13 80.13" version="1.1" viewBox="0 0 80.13 80.13" xml:space="preserve" xmlns="http://www.w3.org/2000/svg">
	<path d="m48.355 17.922c3.705 2.323 6.303 6.254 6.776 10.817 1.511 0.706 3.188 1.112 4.966 1.112 6.491 0 11.752-5.261 11.752-11.751 0-6.491-5.261-11.752-11.752-11.752-6.429 2e-3 -11.644 5.169-11.742 11.574zm-7.699 24.062c6.491 0 11.752-5.262 11.752-11.752s-5.262-11.751-11.752-11.751-11.754 5.262-11.754 11.752 5.264 11.751 11.754 11.751zm4.985 0.801h-9.972c-8.297 0-15.047 6.751-15.047 15.048v12.195l0.031 0.191 0.84 0.263c7.918 2.474 14.797 3.299 20.459 3.299 11.059 0 17.469-3.153 17.864-3.354l0.785-0.397h0.084v-12.197c3e-3 -8.297-6.747-15.048-15.044-15.048zm19.443-12.132h-9.895c-0.107 3.959-1.797 7.524-4.47 10.088 7.375 2.193 12.771 9.032 12.771 17.11v3.758c9.77-0.358 15.4-3.127 15.771-3.313l0.785-0.398h0.084v-12.199c0-8.296-6.75-15.046-15.046-15.046zm-45.049-0.8c2.299 0 4.438-0.671 6.25-1.814 0.576-3.757 2.59-7.04 5.467-9.276 0.012-0.22 0.033-0.438 0.033-0.66 0-6.491-5.262-11.752-11.75-11.752-6.492 0-11.752 5.261-11.752 11.752 0 6.488 5.26 11.75 11.752 11.75zm10.554 10.888c-2.66-2.551-4.344-6.097-4.467-10.032-0.367-0.027-0.73-0.056-1.104-0.056h-9.971c-8.297 0-15.047 6.75-15.047 15.046v12.197l0.031 0.188 0.84 0.265c6.352 1.983 12.021 2.897 16.945 3.185v-3.683c2e-3 -8.078 5.396-14.915 12.773-17.11z"/>
</svg>

<?xml version="1.0" encoding="iso-8859-1"?>
<!-- Generator: Adobe Illustrator 16.0.0, SVG Export Plug-In . SVG Version: 6.00 Build 0)  -->
<!DOCTYPE svg PUBLIC "-//W3C//DTD SVG 1.1//EN" "http://www.w3.org/Graphics/SVG/1.1/DTD/svg11.dtd">
<svg version="1.1" id="Capa_1" xmlns="http://www.w3.org/2000/svg" xmlns:xlink="http://www.w3.org/1999/xlink" x="0px" y="0px"
	 width="80.13px" height="80.13px" viewBox="0 0 80.13 80.13" style="enable-background:new 0 0 80.13 80.13;" xml:space="preserve"
	>
<g>
	<path d="M48.355,17.922c3.705,2.323,6.303,6.254,6.776,10.817c1.511,0.706,3.188,1.112,4.966,1.112
		c6.491,0,11.752-5.261,11.752-11.751c0-6.491-5.261-11.752-11.752-11.752C53.668,6.35,48.453,11.517,48.355,17.922z M40.656,41.984
		c6.491,0,11.752-5.262,11.752-11.752s-5.262-11.751-11.752-11.751c-6.49,0-11.754,5.262-11.754,11.752S34.166,41.984,40.656,41.984
		z M45.641,42.785h-9.972c-8.297,0-15.047,6.751-15.047,15.048v12.195l0.031,0.191l0.84,0.263
		c7.918,2.474,14.797,3.299,20.459,3.299c11.059,0,17.469-3.153,17.864-3.354l0.785-0.397h0.084V57.833
		C60.688,49.536,53.938,42.785,45.641,42.785z M65.084,30.653h-9.895c-0.107,3.959-1.797,7.524-4.47,10.088
		c7.375,2.193,12.771,9.032,12.771,17.11v3.758c9.77-0.358,15.4-3.127,15.771-3.313l0.785-0.398h0.084V45.699
		C80.13,37.403,73.38,30.653,65.084,30.653z M20.035,29.853c2.299,0,4.438-0.671,6.25-1.814c0.576-3.757,2.59-7.04,5.467-9.276
		c0.012-0.22,0.033-0.438,0.033-0.66c0-6.491-5.262-11.752-11.75-11.752c-6.492,0-11.752,5.261-11.752,11.752
		C8.283,24.591,13.543,29.853,20.035,29.853z M30.589,40.741c-2.66-2.551-4.344-6.097-4.467-10.032
		c-0.367-0.027-0.73-0.056-1.104-0.056h-9.971C6.75,30.653,0,37.403,0,45.699v12.197l0.031,0.188l0.84,0.265
		c6.352,1.983,12.021,2.897,16.945,3.185v-3.683C17.818,49.773,23.212,42.936,30.589,40.741z"/>
</g>
<g>
</g>
<g>
</g>
<g>
</g>
<g>
</g>
<g>
</g>
<g>
</g>
<g>
</g>
<g>
</g>
<g>
</g>
<g>
</g>
<g>
</g>
<g>
</g>
<g>
</g>
<g>
</g>
<g>
</g>
</svg>
